X:2175
T:Gnglt fran Mockfjrd (Frisells gnglt)
A:Dalarna
C:Anders Frisell
M:4/4
O:Sweden
R:Gnglt
Z:Richard Robinson 
%%TUNEURL: http://www.leeds.ac.uk/music/Info/RRTuneBk/gettune/00000952.html
%%ID:00000952
K:D
F/G/ |\
A>B AG {FG}FD FF/G/ | A/B/A/F/ Ad f3e/f/ |\
gb/g/ fa/f/ ef/e/ df/d/ |1 \
ce/c/ E/^G/B/G/ A3F/G/ :|2 \
ca A/c/e/c/ d3 :: e/f/ |\
g>a g/f/g/a/ bg dB | A>g f/e/f/g/ a3 (3g/a/g/ |\
fe e/^d/e/f/ ge cA | df/d/ ce/c/ Bd/B/ Ae/f/ |\
g>a g/f/g/a/ bg dB | A>g f/e/f/g/ a3 (3g/a/g/ |\
fe e/^d/e/f/ ge cA | da A/c/e/c/ d3 :|
